X: 1
T: the Hare in the Heather
R: reel
Z: id:hn-reel-737
M: C|
F: http://norbeck.nu/abc/i/hnr7.abc	 2016-03-29 203957 UT
K: Edor
|:\
"Em"~E3B "D"BAFA | "Em"~E3B "D"ADFD |\
"Em"~E3B "D"BA F{G}A |\
[1,3 "G"B2dB "D"ADFD :|[2,4 "G"B2dB "D"ADFA :|
|:\
"Em"B2eB fBeB | "(G)"~B2dB "D"ADFA |\
[1 "Em"B2eB fBeB | "G"dcdB "D"ADFA :|[2 "Em"B{c}deg "D"fdec | "G"dcdB "D"ADFA |]
|:\
"Em"B[AE]GF EFGA | "Em"BEGB "D"ADFA |\
[1 "Em"B[AE]GF EFGA | "G"BAdB "D"ADFA :|[2 "Em"B[AE]GF EFGA | "G"BAdB "D"AGFD |]
